X:1
T:Air [33]
L:1/8
M:3/4
I:linebreak $
K:G
V:1 treble 
V:1
 G2 BGBe | d2 c2 B2 | g2 fedc | B2 AB G2 | G2 BG d2 | G2 BG gf/e/ | f2 e2 d2 :: e2 egfg | %8
 d2 dgfg |$ c2 edcB | BAGFED | e2 egfg | d2 dgfg | Ac B2 A2 | G6 :| %15
